svg/UnitedNationsOCHA-Humanitarian/food_NFI_rice_icon.svg

<svg xmlns="http://www.w3.org/2000/svg" viewBox="0 0 32 32" enable-background="new 0 0 32 32"><path fill="#407cca" d="m15.922 16.1c-.484-1.641 2.153-2.631 2.122-.978.243.883.313 1.394-.588 1.563-.795.149-1.292.236-1.534-.585m1.909-5.432c-.263.892 1.034 1.021.698 2.01.677 0 .48-.539.733-.983.365-.638 1.212-.792 1.149-1.67.064 1.614.961-.119 1.566-.183.032-.302-.108-.677-.141-.88-.297-.637-.271-1.259-1.088-.811-.583.317-1.331.932-.602 1.484-.737.109-2.042.102-2.315 1.037m-1.893-2.325c-.336.191-.511.927-.587 1.275-.141.645-.099 2.69.986 2.357.614-.186.505-1.122.742-1.612.161-.327.393-.273.479-.62.063-.255-.083-.653-.122-.913.412 1.063 2.01.583 1.615-.488-.321-.293-.951-.477-1.367-.258-.604.32-.053.67-.516.688-.318.001-.571-.801-1.23-.429m1.745 4.528c-.442-1.47-3.092.664-2.584 1.578.37.67.973-.47 1.347-.663.512-.262 1.348-.026 1.237-.915m1-5.391c.406.167.872.144.733-.458-.602-.486-2.288-.62-2.233.488.47-.059 1.039-.222 1.5-.03m1.139 5.747c.446-.308 1.19-.261 1.071-1.01-.742-1.694-2.125 1.673-2.242 2.251.534-.227.688-.915 1.171-1.245m3.155 2.197c.255.494 1.361.18 1.919-.099.729-.359.899-.847.728-1.664-.502-2.071-3.345.413-2.647 1.763m-1.704.827c.617-.519.471-2.2.369-2.886-.645-.102-1.422.18-1.88.644-.331.34-1.269 1.939-.896 2.409.253.317 2.184.023 2.407-.167m3.602-4.066c.498-.102.311-.886.229-1.34-.039-1.207-1.327-.239-1.099.628.091.338.454.796.87.712m-3.367.006c.193.362.688.366.817 1.01.148.723-.171 1.487-.075 2.223.466-.379.389-1.748.799-2.386.237-.374.517-.428.524-.867.007-.306-.294-.706-.446-.958.473-.021.951-1.712.281-1.68-.344-.503-.733-.581-.903-.033-.179.575.517 1.131.693 1.611-.825-.469-2.321-.103-1.69 1.084m-10.03-.189c.33-.017.276.293.602.156.33-.138.559-.739.77-1.014.344-1.523-2.764-1.288-2.497.514.106.716.419.386 1.125.344m-1.404-1.775c-.084-.638-1.03-.817-1.294-.2-.194.452 1.179 1.722 1.294.2m-.33 3.733c-.208.432-.285.964-.247 1.441.067.84.164.651.761.844.325.102.867.41 1.209.356.699-.114.376-.317.246-.805-.108-.404-.364-.833-.359-1.261.006-.589.503-.991.445-1.595-.461-1.338-1.797.476-2.055 1.02m-2.539-1.673c.313.133.428.669.727.746.261.064.555-.314.984-.246.369.061.436.749.82.163.231-.356.159-.749.025-1.134-.788-.767-1.778-1.163-2.781-.65-.209.107-1.069.347-.672.709.417.379.541.26.897.412m9.334-5.339c-.511-.925-3.048-.994-2.559.487.315.955 2.73.689 2.559-.487m-9.459 5.767c-.575.323-1.17.866-.841 1.611.591 1.33.811.599 1.177-.239.1.556-.022 1.137.564 1.416.636.298.897-.019.964-.667.045-.428.333-1.509-.229-1.646-.402-.096-.855.592-1.233.697.064-.191.099-.422.2-.595-.115-.28-.36-.421-.602-.577m6.559-2.331c.122.589-.681 1.431-.969 1.87.233-.108.224-.023.406-.206.023.3.047.598.072.898.822-.114 1.036.766 1.68-.278.604-.974-.017-1.422-1.01-1.291.19-.56.709-.039.837-.65.126-.599.124-1.209.247-1.808-.251-.295-.857-.694-1.236-.583-.269.083-.914.889-.878 1.125.072.468.738.402.847.923m-1.476 4.109c-.594.82.219.83.528 1.18.322.362.208.868.629.945.313.055.972.326 1.278.097.625-.467-.167-1.764-.469-2.294-.396-.569-1.557-.49-1.966.072m15.834-.033c0-.867-.497-1.673-1.346-2.394-.357.236-.742.442-1.137.608.55.413.857.867.857 1.347 0 1.874-4.646 3.391-10.375 3.391s-10.374-1.518-10.374-3.391c0-.528.388-1.03 1.053-1.477l-1.078-.694c-1.01.77-1.6 1.659-1.6 2.61 0 .052.003.105.006.156h-.006c.078 2.026.706 4.151 1.742 6.14 0 0 2.511 4.953 10.258 4.953s10.216-4.996 10.216-4.996c1.032-1.978 1.706-4.121 1.781-6.097h-.003c.003-.051.006-.104.006-.156m-14.874-6.469c.403-1.409-2.953-.029-2.367 1.438.429 1.068 2.051-.938 2.367-1.438"/></svg>

<?xml version="1.0" encoding="utf-8"?>
<!-- Generator: Adobe Illustrator 16.0.3, SVG Export Plug-In . SVG Version: 6.00 Build 0)  -->
<!DOCTYPE svg PUBLIC "-//W3C//DTD SVG 1.1//EN" "http://www.w3.org/Graphics/SVG/1.1/DTD/svg11.dtd">
<svg version="1.1" id="Layer_1" xmlns="http://www.w3.org/2000/svg" xmlns:xlink="http://www.w3.org/1999/xlink" x="0px" y="0px"
	 width="32px" height="32px" viewBox="0 0 32 32" enable-background="new 0 0 32 32" xml:space="preserve">
<path fill="#407CCA" d="M15.922,16.104c-0.484-1.641,2.153-2.631,2.122-0.978c0.243,0.883,0.313,1.394-0.588,1.563
	C16.661,16.838,16.164,16.925,15.922,16.104z M17.831,10.672c-0.263,0.892,1.034,1.021,0.698,2.006c0.677,0,0.48-0.539,0.733-0.983
	c0.365-0.638,1.212-0.792,1.149-1.67c0.064,1.614,0.961-0.119,1.566-0.183c0.032-0.302-0.108-0.677-0.141-0.88
	c-0.297-0.637-0.271-1.259-1.088-0.811c-0.583,0.317-1.331,0.932-0.602,1.484C19.409,9.744,18.104,9.737,17.831,10.672z
	 M15.938,8.347c-0.336,0.191-0.511,0.927-0.587,1.275c-0.141,0.645-0.099,2.69,0.986,2.357c0.614-0.186,0.505-1.122,0.742-1.612
	c0.161-0.327,0.393-0.273,0.479-0.62c0.063-0.255-0.083-0.653-0.122-0.913c0.412,1.063,2.008,0.583,1.615-0.488
	c-0.321-0.293-0.951-0.477-1.367-0.258c-0.604,0.32-0.053,0.67-0.516,0.688C16.85,8.786,16.597,7.975,15.938,8.347z M17.683,12.875
	c-0.442-1.47-3.092,0.664-2.584,1.578c0.37,0.67,0.973-0.47,1.347-0.663C16.958,13.528,17.794,13.764,17.683,12.875z M18.683,7.484
	c0.406,0.167,0.872,0.144,0.733-0.458c-0.602-0.486-2.288-0.62-2.233,0.488C17.653,7.455,18.222,7.292,18.683,7.484z M19.822,13.231
	c0.446-0.308,1.19-0.261,1.071-1.006c-0.742-1.694-2.125,1.673-2.242,2.251C19.185,14.249,19.339,13.561,19.822,13.231z
	 M22.977,15.428c0.255,0.494,1.361,0.18,1.919-0.099c0.729-0.359,0.899-0.847,0.728-1.664
	C25.122,11.594,22.279,14.078,22.977,15.428z M21.273,16.255c0.617-0.519,0.471-2.2,0.369-2.886c-0.645-0.102-1.422,0.18-1.88,0.644
	c-0.331,0.34-1.269,1.939-0.896,2.409C19.119,16.739,21.05,16.445,21.273,16.255z M24.875,12.189
	c0.498-0.102,0.311-0.886,0.229-1.34c-0.039-1.207-1.327-0.239-1.099,0.628C24.096,11.815,24.459,12.273,24.875,12.189z
	 M21.508,12.195c0.193,0.362,0.688,0.366,0.817,1.006c0.148,0.723-0.171,1.487-0.075,2.223c0.466-0.379,0.389-1.748,0.799-2.386
	c0.237-0.374,0.517-0.428,0.524-0.867c0.007-0.306-0.294-0.706-0.446-0.958c0.473-0.021,0.951-1.712,0.281-1.68
	c-0.344-0.503-0.733-0.581-0.903-0.033c-0.179,0.575,0.517,1.131,0.693,1.611C22.373,10.642,20.877,11.008,21.508,12.195z
	 M11.481,12.006c0.33-0.017,0.276,0.293,0.602,0.156c0.33-0.138,0.559-0.739,0.77-1.014c0.344-1.523-2.764-1.288-2.497,0.514
	C10.462,12.378,10.775,12.048,11.481,12.006z M10.077,10.231c-0.084-0.638-1.03-0.817-1.294-0.2
	C8.589,10.483,9.962,11.753,10.077,10.231z M9.747,13.964c-0.208,0.432-0.285,0.964-0.247,1.441c0.067,0.84,0.164,0.651,0.761,0.844
	c0.325,0.102,0.867,0.41,1.209,0.356c0.699-0.114,0.376-0.317,0.246-0.805c-0.108-0.404-0.364-0.833-0.359-1.261
	c0.006-0.589,0.503-0.991,0.445-1.595C11.341,11.606,10.005,13.42,9.747,13.964z M7.208,12.291c0.313,0.133,0.428,0.669,0.727,0.746
	c0.261,0.064,0.555-0.314,0.984-0.246c0.369,0.061,0.436,0.749,0.82,0.163c0.231-0.356,0.159-0.749,0.025-1.134
	c-0.788-0.767-1.778-1.163-2.781-0.65c-0.209,0.107-1.069,0.347-0.672,0.709C6.728,12.258,6.852,12.139,7.208,12.291z M16.542,6.952
	c-0.511-0.925-3.048-0.994-2.559,0.487C14.298,8.394,16.713,8.128,16.542,6.952z M7.083,12.719c-0.575,0.323-1.17,0.866-0.841,1.611
	c0.591,1.33,0.811,0.599,1.177-0.239c0.1,0.556-0.022,1.137,0.564,1.416c0.636,0.298,0.897-0.019,0.964-0.667
	c0.045-0.428,0.333-1.509-0.229-1.646c-0.402-0.096-0.855,0.592-1.233,0.697c0.064-0.191,0.099-0.422,0.2-0.595
	C7.57,13.016,7.325,12.875,7.083,12.719z M13.642,10.388c0.122,0.589-0.681,1.431-0.969,1.87c0.233-0.108,0.224-0.023,0.406-0.206
	c0.023,0.3,0.047,0.598,0.072,0.898c0.822-0.114,1.036,0.766,1.68-0.278c0.604-0.974-0.017-1.422-1.006-1.291
	c0.19-0.56,0.709-0.039,0.837-0.65c0.126-0.599,0.124-1.209,0.247-1.808c-0.251-0.295-0.857-0.694-1.236-0.583
	c-0.269,0.083-0.914,0.889-0.878,1.125C12.867,9.933,13.533,9.867,13.642,10.388z M12.166,14.497c-0.594,0.82,0.219,0.83,0.528,1.18
	c0.322,0.362,0.208,0.868,0.629,0.945c0.313,0.055,0.972,0.326,1.278,0.097c0.625-0.467-0.167-1.764-0.469-2.294
	C13.736,13.856,12.575,13.935,12.166,14.497z M28,14.464c0-0.867-0.497-1.673-1.346-2.394c-0.357,0.236-0.742,0.442-1.137,0.608
	c0.55,0.413,0.857,0.867,0.857,1.347c0,1.874-4.646,3.391-10.375,3.391S5.625,15.898,5.625,14.025c0-0.528,0.388-1.03,1.053-1.477
	L5.6,11.854C4.589,12.624,4,13.513,4,14.464c0,0.052,0.003,0.105,0.006,0.156H4c0.078,2.026,0.706,4.151,1.742,6.14
	c0,0,2.511,4.953,10.258,4.953s10.216-4.996,10.216-4.996c1.032-1.978,1.706-4.121,1.781-6.097h-0.003
	C27.997,14.569,28,14.516,28,14.464z M13.126,7.995c0.403-1.409-2.953-0.029-2.367,1.438C11.188,10.501,12.81,8.495,13.126,7.995z"
	/>
</svg>
